storage/app/icons/phosphoricons/bold/coffee-bold.svg

<svg xmlns="http://www.w3.org/2000/svg" viewBox="0 0 256 256" fill="currentColor"><path d="M212,76H32A12,12,0,0,0,20,88v48a100.24,100.24,0,0,0,26.73,68H32a12,12,0,0,0,0,24H208a12,12,0,0,0,0-24H193.27a100.75,100.75,0,0,0,20-32A44,44,0,0,0,256,128v-8A44.05,44.05,0,0,0,212,76Zm-16,60a76.27,76.27,0,0,1-42,68H86a76.27,76.27,0,0,1-42-68V100H196Zm36-8a20,20,0,0,1-12.57,18.55A97.17,97.17,0,0,0,220,136V101.68A20,20,0,0,1,232,120ZM68,48V24a12,12,0,0,1,24,0V48a12,12,0,0,1-24,0Zm40,0V24a12,12,0,0,1,24,0V48a12,12,0,0,1-24,0Zm40,0V24a12,12,0,0,1,24,0V48a12,12,0,0,1-24,0Z"/></svg>

<svg xmlns="http://www.w3.org/2000/svg" fill="currentColor" viewBox="0 0 256 256"><path d="M212 76H32a12 12 0 0 0-12 12v48a100.24 100.24 0 0 0 26.73 68H32a12 12 0 0 0 0 24h176a12 12 0 0 0 0-24h-14.73a100.8 100.8 0 0 0 20-32A44 44 0 0 0 256 128v-8a44.05 44.05 0 0 0-44-44m-16 60a76.27 76.27 0 0 1-42 68H86a76.27 76.27 0 0 1-42-68v-36h152Zm36-8a20 20 0 0 1-12.57 18.55A97 97 0 0 0 220 136v-34.32A20 20 0 0 1 232 120ZM68 48V24a12 12 0 0 1 24 0v24a12 12 0 0 1-24 0m40 0V24a12 12 0 0 1 24 0v24a12 12 0 0 1-24 0m40 0V24a12 12 0 0 1 24 0v24a12 12 0 0 1-24 0"/></svg>
